X:2
T:Brian Boru's March
R:march
Z:id:hn-march-4
M:6/8
K:Ador
ed|:cBA Aed|cBA Adc|BAG Gdc|BAG Ged|
cBA Aed|cBA A2G|Acd e2d|1 cAA Aed:|2 cAA A2G||
|:Acd e2d|e2d edc|GBc d2g|d2g dBG|
Acd e2d|e2d edc|Acd e2d|1 cAA A2G:|2 cAA A2B||
|:cBA aAA|cBA aAA|BAG gGG|BAG gGG|
cBA aAA|cBA aAA|Acd e2d|1 cAA A2B:|2 cAA A2||





